_includes/icons/ios-favorite-folder.svg

<svg fill="#666" height="50" viewBox="0 0 50 50" width="50" xmlns="http://www.w3.org/2000/svg"><path d="m5 4c-1.6449698 0-3 1.3550302-3 3v9 10 17c0 1.64497 1.3550302 3 3 3h40c1.64497 0 3-1.35503 3-3v-32c0-1.6449698-1.35503-3-3-3h-27c.08657 0-.03101.000364-.275391-.28125-.244382-.281614-.54519-.7488088-.859375-1.25-.314184-.5011912-.643457-1.0359601-1.058593-1.5058594-.415137-.4698992-.987887-.9628906-1.806641-.9628906zm0 2h9c-.06075 0 .06114.00701.308594.2871094.247457.2801007.548637.7453318.861328 1.2441406s.636507 1.031614 1.042969 1.5c.406461.468386.966036.96875 1.787109.96875h27c.56503 0 1 .43497 1 1v2.1875c-.314892-.11356-.648157-.1875-1-.1875h-40c-.3518425 0-.6851085.07394-1 .1875v-6.1875c0-.5650302.4349698-1 1-1zm0 9h40c.56503 0 1 .43497 1 1v27c0 .56503-.43497 1-1 1h-40c-.5650302 0-1-.43497-1-1v-27c0-.56503.4349698-1 1-1zm15.714844 5c-3.653468 0-6.714844 2.772122-6.714844 6.267578 0 3.231247 2.727445 6.411033 5.287109 9.007813 2.559665 2.596779 5.109375 4.521484 5.109375 4.521484l.59961.453125.601562-.449219s2.552103-1.902003 5.113282-4.488281c2.561177-2.586278 5.289062-5.778171 5.289062-9.044922 0-3.495456-3.061376-6.267578-6.714844-6.267578-1.720421 0-3.140387.796614-4.285156 1.769531-1.144769-.972917-2.564735-1.769531-4.285156-1.769531zm0 2c1.369494 0 2.658963.738033 3.558594 1.6875l.726562.765625.726562-.765625c.899631-.949467 2.1891-1.6875 3.558594-1.6875 2.656532 0 4.714844 1.945034 4.714844 4.267578 0 2.001249-2.272116 5.17595-4.710938 7.638672-2.138877 2.159839-3.789514 3.386727-4.285156 3.765625-.494866-.382768-2.149965-1.626732-4.291015-3.798828-2.440336-2.475721-4.712891-5.662716-4.712891-7.605469 0-2.322544 2.058312-4.267578 4.714844-4.267578z"/></svg>

<svg xmlns="http://www.w3.org/2000/svg" viewBox="0 0 50 50" width="50" height="50" fill="#666"><path style="line-height:normal;text-indent:0;text-align:start;text-decoration-line:none;text-decoration-style:solid;text-decoration-color:#000;text-transform:none;block-progression:tb;isolation:auto;mix-blend-mode:normal" d="M 5 4 C 3.3550302 4 2 5.3550302 2 7 L 2 16 L 2 26 L 2 43 C 2 44.64497 3.3550302 46 5 46 L 45 46 C 46.64497 46 48 44.64497 48 43 L 48 11 C 48 9.3550302 46.64497 8 45 8 L 18 8 C 18.08657 8 17.96899 8.000364 17.724609 7.71875 C 17.480227 7.437136 17.179419 6.9699412 16.865234 6.46875 C 16.55105 5.9675588 16.221777 5.4327899 15.806641 4.9628906 C 15.391504 4.4929914 14.818754 4 14 4 L 5 4 z M 5 6 L 14 6 C 13.93925 6 14.06114 6.00701 14.308594 6.2871094 C 14.556051 6.5672101 14.857231 7.0324412 15.169922 7.53125 C 15.482613 8.0300588 15.806429 8.562864 16.212891 9.03125 C 16.619352 9.499636 17.178927 10 18 10 L 45 10 C 45.56503 10 46 10.43497 46 11 L 46 13.1875 C 45.685108 13.07394 45.351843 13 45 13 L 5 13 C 4.6481575 13 4.3148915 13.07394 4 13.1875 L 4 7 C 4 6.4349698 4.4349698 6 5 6 z M 5 15 L 45 15 C 45.56503 15 46 15.43497 46 16 L 46 43 C 46 43.56503 45.56503 44 45 44 L 5 44 C 4.4349698 44 4 43.56503 4 43 L 4 16 C 4 15.43497 4.4349698 15 5 15 z M 20.714844 20 C 17.061376 20 14 22.772122 14 26.267578 C 14 29.498825 16.727445 32.678611 19.287109 35.275391 C 21.846774 37.87217 24.396484 39.796875 24.396484 39.796875 L 24.996094 40.25 L 25.597656 39.800781 C 25.597656 39.800781 28.149759 37.898778 30.710938 35.3125 C 33.272115 32.726222 36 29.534329 36 26.267578 C 36 22.772122 32.938624 20 29.285156 20 C 27.564735 20 26.144769 20.796614 25 21.769531 C 23.855231 20.796614 22.435265 20 20.714844 20 z M 20.714844 22 C 22.084338 22 23.373807 22.738033 24.273438 23.6875 L 25 24.453125 L 25.726562 23.6875 C 26.626193 22.738033 27.915662 22 29.285156 22 C 31.941688 22 34 23.945034 34 26.267578 C 34 28.268827 31.727884 31.443528 29.289062 33.90625 C 27.150185 36.066089 25.499548 37.292977 25.003906 37.671875 C 24.50904 37.289107 22.853941 36.045143 20.712891 33.873047 C 18.272555 31.397326 16 28.210331 16 26.267578 C 16 23.945034 18.058312 22 20.714844 22 z"/></svg>
